Hatter-kde/actions/32/percent.svg

<?xml version="1.0" encoding="UTF-8"?>
<svg viewBox="0 0 32 32" xmlns="http://www.w3.org/2000/svg">
 <defs id="defs3051">
  <style id="current-color-scheme" type="text/css">.ColorScheme-Text {
        color:#363636;
      }</style>
 </defs>
 <path id="path102" class="ColorScheme-Text" d="m23.59 3.7207-16 24 0.83203 0.55469 16-24-0.83203-0.55469zm-14.59 2.2793c-2.761 0-5 2.239-5 5s2.239 5 5 5 5-2.239 5-5-2.239-5-5-5zm0 1c2.209 0 4 1.791 4 4s-1.791 4-4 4-4-1.791-4-4 1.791-4 4-4zm14 9c-2.761 0-5 2.239-5 5s2.239 5 5 5 5-2.239 5-5-2.239-5-5-5zm0 1c2.209 0 4 1.791 4 4s-1.791 4-4 4-4-1.791-4-4 1.791-4 4-4z" fill="currentColor"/>
</svg>

<svg xmlns="http://www.w3.org/2000/svg" viewBox="0 0 32 32">
  <defs
     id="defs3051">
    <style
       type="text/css"
       id="current-color-scheme">
      .ColorScheme-Text {
        color:#363636;
      }
      </style>
  </defs>
  <path
     style="fill:currentColor;fill-opacity:1;stroke:none" 
     d="M 23.589844 3.7207031 L 7.5898438 27.720703 L 8.421875 28.275391 L 24.421875 4.2753906 L 23.589844 3.7207031 z M 9 6 C 6.239 6 4 8.239 4 11 C 4 13.761 6.239 16 9 16 C 11.761 16 14 13.761 14 11 C 14 8.239 11.761 6 9 6 z M 9 7 C 11.209 7 13 8.791 13 11 C 13 13.209 11.209 15 9 15 C 6.791 15 5 13.209 5 11 C 5 8.791 6.791 7 9 7 z M 23 16 C 20.239 16 18 18.239 18 21 C 18 23.761 20.239 26 23 26 C 25.761 26 28 23.761 28 21 C 28 18.239 25.761 16 23 16 z M 23 17 C 25.209 17 27 18.791 27 21 C 27 23.209 25.209 25 23 25 C 20.791 25 19 23.209 19 21 C 19 18.791 20.791 17 23 17 z "
     id="path102" 
     class="ColorScheme-Text"
     />
</svg>
